32x32/apps/ieee1394.svg

<svg height="32" width="32" xmlns="http://www.w3.org/2000/svg"><rect height="28" opacity=".2" rx="2.1" width="28" x="2" y="3"/><rect fill="#f4f4f7" height="28" rx="2.1" width="28" x="2" y="2"/><path d="m11.402 8.043-2.829 2.83 1.062 1.06 2.828-2.83zm9.193 0-2.83 2.83 2.83 2.827 2.828-2.828zm-7.425 1.769-2.828 2.828 1.06 1.06 2.828-2.828zm2.83 2.188a3.5 3.5 0 0 0 -3.5 3.5 3.5 3.5 0 0 0 3.5 3.5 3.5 3.5 0 0 0 3.5-3.5 3.5 3.5 0 0 0 -3.5-3.5zm0 1.5a2 2 0 0 1 2 2 2 2 0 0 1 -2 2 2 2 0 0 1 -2-2 2 2 0 0 1 2-2zm-2 6.5v1.5h4v-1.5zm0 2.5v1.5h4v-1.5z" fill="#17191e"/><path d="m4.1 2c-1.164 0-2.1.936-2.1 2.1v1c0-1.164.936-2.1 2.1-2.1h23.8c1.164 0 2.1.936 2.1 2.1v-1c0-1.164-.936-2.1-2.1-2.1z" fill="#f4f4f7" opacity=".2"/></svg>

<svg height="32" width="32" xmlns="http://www.w3.org/2000/svg">
    <rect height="28" opacity=".2" rx="2.1" width="28" x="2" y="3"/>
    <rect fill="#f4f4f7" height="28" rx="2.1" width="28" x="2" y="2"/>
    <path d="m11.402 8.043-2.829 2.83 1.062 1.06 2.828-2.83zm9.193 0-2.83 2.83 2.83 2.827 2.828-2.828zM13.17 9.812l-2.828 2.828 1.06 1.06 2.828-2.828zM16 12a3.5 3.5 0 0 0-3.5 3.5A3.5 3.5 0 0 0 16 19a3.5 3.5 0 0 0 3.5-3.5A3.5 3.5 0 0 0 16 12zm0 1.5a2 2 0 0 1 2 2 2 2 0 0 1-2 2 2 2 0 0 1-2-2 2 2 0 0 1 2-2zM14 20v1.5h4V20zm0 2.5V24h4v-1.5z" fill="#17191e"/>
    <path d="M4.1 2C2.936 2 2 2.936 2 4.1v1C2 3.936 2.936 3 4.1 3h23.8c1.164 0 2.1.936 2.1 2.1v-1c0-1.164-.936-2.1-2.1-2.1z" fill="#f4f4f7" opacity=".2"/>
</svg>
